client/public/assets/icons/utility/collapse_all.svg

<?xml version="1.0"?><svg xmlns="http://www.w3.org/2000/svg" viewBox="0 0 52 52" width="52" height="52"><path fill="#fff" d="m48 9.5c0-0.8-0.7-1.5-1.5-1.5h-41c-0.8 0-1.5 0.7-1.5 1.5v3c0 0.8 0.7 1.5 1.5 1.5h41c0.8 0 1.5-0.7 1.5-1.5v-3z m0 30c0-0.8-0.7-1.5-1.5-1.5h-41c-0.8 0-1.5 0.7-1.5 1.5v3c0 0.8 0.7 1.5 1.5 1.5h41c0.8 0 1.5-0.7 1.5-1.5v-3z m-13.5-10.5c0.8 0 1.5-0.7 1.5-1.5v-3c0-0.8-0.7-1.5-1.5-1.5h-17c-0.8 0-1.5 0.7-1.5 1.5v3c0 0.8 0.7 1.5 1.5 1.5h17z"></path></svg>

<?xml version="1.0" encoding="utf-8"?>
<!-- Generator: Adobe Illustrator 21.0.0, SVG Export Plug-In . SVG Version: 6.00 Build 0)  -->
<svg version="1.1" id="Layer_1" xmlns="http://www.w3.org/2000/svg" xmlns:xlink="http://www.w3.org/1999/xlink" x="0px" y="0px"
	 viewBox="0 0 52 52" width="52" height="52" enable-background="new 0 0 52 52" xml:space="preserve">
<path fill="#FFFFFF" d="M48,9.5C48,8.7,47.3,8,46.5,8h-41C4.7,8,4,8.7,4,9.5v3C4,13.3,4.7,14,5.5,14h41c0.8,0,1.5-0.7,1.5-1.5V9.5z"
	/>
<path fill="#FFFFFF" d="M48,39.5c0-0.8-0.7-1.5-1.5-1.5h-41C4.7,38,4,38.7,4,39.5v3C4,43.3,4.7,44,5.5,44h41c0.8,0,1.5-0.7,1.5-1.5
	V39.5z"/>
<path fill="#FFFFFF" d="M34.5,29c0.8,0,1.5-0.7,1.5-1.5v-3c0-0.8-0.7-1.5-1.5-1.5h-17c-0.8,0-1.5,0.7-1.5,1.5v3
	c0,0.8,0.7,1.5,1.5,1.5H34.5z"/>
</svg>
